_includes/logo.svg

<svg id="eOXqk2Pp5901" xmlns="http://www.w3.org/2000/svg" xmlns:xlink="http://www.w3.org/1999/xlink" viewBox="0 0 63 37" shape-rendering="geometricPrecision" text-rendering="geometricPrecision" width="63" height="37">
<style><![CDATA[
#eOXqk2Pp5902_ts {animation: eOXqk2Pp5902_ts__ts 3000ms linear 1 normal forwards}@keyframes eOXqk2Pp5902_ts__ts { 0% {transform: translate(31.603516px,18.984011px) scale(1,1)} 50% {transform: translate(31.603516px,18.984011px) scale(0.46,0.46)} 100% {transform: translate(31.603516px,18.984011px) scale(1,1)}}
]]></style>
<g id="eOXqk2Pp5902_ts" transform="translate(31.603516,18.984011) scale(1,1)"><g transform="translate(-31.603516,-18.984011)"><path d="M31.25,3.105469c-.09375.253906-.804688,2.484375-1.582031,4.949219l-1.441407,4.484374-5.3125.117188-5.332031.113281l4.347657,3.175781l4.375,3.199219-1.71875,4.945313c-.914063,2.738281-1.671876,4.996094-1.625,5.039062.023437.023438,1.945312-1.332031,4.257812-3.035156c2.679688-1.980469,4.304688-3.015625,4.464844-2.898438c1.488281,1.171876,8.21875,5.820313,8.285156,5.75.046875-.066406-.640625-2.253906-1.507812-4.898437-.984376-2.992187-1.511719-4.878906-1.398438-5.039063.113281-.140624,2.0625-1.613281,4.328125-3.246093l4.121094-2.992188-5.335938-.066406-5.332031-.046875-1.445312-4.328125c-.777344-2.367187-1.554688-4.625-1.714844-4.992187-.273438-.621094-.320313-.644532-.433594-.230469Zm0,0"/><path d="M9.636719,21.398438L8.628906,24.621094l-3.546875.046875-3.523437.066406l1.097656.808594c.617188.433593,1.855469,1.332031,2.746094,2l1.648437,1.195312-1.007812,3.152344c-.546875,1.75-.960938,3.199219-.9375,3.246094.089843.070312,1.144531-.644531,4.1875-2.832031l1.398437-.988282L13.300781,33.25c1.441407,1.058594,2.632813,1.816406,2.679688,1.726562.042969-.117187-.367188-1.566406-.894531-3.199218-.527344-1.65625-.914063-3.0625-.871094-3.105469.046875-.046875,1.304687-.96875,2.816406-2.074219l2.703125-1.976562h-6.867187l-1.078126-3.222656c-.59375-1.769532-1.074218-3.21875-1.097656-3.21875s-.503906,1.449218-1.054687,3.21875Zm0,0"/><path d="M51.300781,21.398438l-1.007812,3.199218-3.433594.070313-3.410156.066406l1.097656.808594c.621094.433593,1.855469,1.332031,2.75,2l1.648437,1.195312L47.9375,31.890625c-.550781,1.75-.960938,3.199219-.9375,3.246094.042969.023437,1.257812-.804688,2.722656-1.863281l2.632813-1.933594L55.078125,33.25c1.488281,1.058594,2.769531,1.863281,2.816406,1.816406s-.410156-1.472656-1.007812-3.199218c-.59375-1.699219-1.050781-3.152344-1.007813-3.195313.046875-.046875,1.375-.96875,2.933594-2.074219l2.835938-1.976562h-7.117188l-1.078125-3.222656c-.59375-1.769532-1.074219-3.21875-1.097656-3.21875s-.503907,1.449218-1.054688,3.21875Zm0,0"/></g></g></svg>

<?xml version="1.0" encoding="UTF-8"?>
<svg xmlns="http://www.w3.org/2000/svg" xmlns:xlink="http://www.w3.org/1999/xlink" width="64px" height="37px" viewBox="0 0 63 37" version="1.1">
<g id="surface1">
<path style=" stroke:none;fill-rule:nonzero;fill:rgb(0%,0%,0%);fill-opacity:1;" d="M 31.25 3.105469 C 31.15625 3.359375 30.445312 5.589844 29.667969 8.054688 L 28.226562 12.539062 L 22.914062 12.65625 L 17.582031 12.769531 L 21.929688 15.945312 L 26.304688 19.144531 L 24.585938 24.089844 C 23.671875 26.828125 22.914062 29.085938 22.960938 29.128906 C 22.984375 29.152344 24.90625 27.796875 27.21875 26.09375 C 29.898438 24.113281 31.523438 23.078125 31.683594 23.195312 C 33.171875 24.367188 39.902344 29.015625 39.96875 28.945312 C 40.015625 28.878906 39.328125 26.691406 38.460938 24.046875 C 37.476562 21.054688 36.949219 19.167969 37.0625 19.007812 C 37.175781 18.867188 39.125 17.394531 41.390625 15.761719 L 45.511719 12.769531 L 40.175781 12.703125 L 34.84375 12.65625 L 33.398438 8.328125 C 32.621094 5.960938 31.84375 3.703125 31.683594 3.335938 C 31.410156 2.714844 31.363281 2.691406 31.25 3.105469 Z M 31.25 3.105469 "/>
<path style=" stroke:none;fill-rule:nonzero;fill:rgb(0%,0%,0%);fill-opacity:1;" d="M 9.636719 21.398438 L 8.628906 24.621094 L 5.082031 24.667969 L 1.558594 24.734375 L 2.65625 25.542969 C 3.273438 25.976562 4.511719 26.875 5.402344 27.542969 L 7.050781 28.738281 L 6.042969 31.890625 C 5.496094 33.640625 5.082031 35.089844 5.105469 35.136719 C 5.195312 35.207031 6.25 34.492188 9.292969 32.304688 L 10.691406 31.316406 L 13.300781 33.25 C 14.742188 34.308594 15.933594 35.066406 15.980469 34.976562 C 16.023438 34.859375 15.613281 33.410156 15.085938 31.777344 C 14.558594 30.121094 14.171875 28.714844 14.214844 28.671875 C 14.261719 28.625 15.519531 27.703125 17.03125 26.597656 L 19.734375 24.621094 L 12.867188 24.621094 L 11.789062 21.398438 C 11.195312 19.628906 10.714844 18.179688 10.691406 18.179688 C 10.667969 18.179688 10.1875 19.628906 9.636719 21.398438 Z M 9.636719 21.398438 "/>
<path style=" stroke:none;fill-rule:nonzero;fill:rgb(0%,0%,0%);fill-opacity:1;" d="M 51.300781 21.398438 L 50.292969 24.597656 L 46.859375 24.667969 L 43.449219 24.734375 L 44.546875 25.542969 C 45.167969 25.976562 46.402344 26.875 47.296875 27.542969 L 48.945312 28.738281 L 47.9375 31.890625 C 47.386719 33.640625 46.976562 35.089844 47 35.136719 C 47.042969 35.160156 48.257812 34.332031 49.722656 33.273438 L 52.355469 31.339844 L 55.078125 33.25 C 56.566406 34.308594 57.847656 35.113281 57.894531 35.066406 C 57.941406 35.019531 57.484375 33.59375 56.886719 31.867188 C 56.292969 30.167969 55.835938 28.714844 55.878906 28.671875 C 55.925781 28.625 57.253906 27.703125 58.8125 26.597656 L 61.648438 24.621094 L 54.53125 24.621094 L 53.453125 21.398438 C 52.859375 19.628906 52.378906 18.179688 52.355469 18.179688 C 52.332031 18.179688 51.851562 19.628906 51.300781 21.398438 Z M 51.300781 21.398438 "/>
</g>
</svg>
